X:1
T:James Gibb editions
T:More love, O Christ, to Thee - Barnby
%%score [ ( 1 2 ) ( 3 4 ) ]
L:1/8
Q:1/4=160
M:3/2
K:Eb
V:1 treble nm="Midi_74"
V:2 treble 
V:3 bass nm="Midi_74"
V:4 bass 
V:1
"^Elizabeth Prentiss\n(1818-78)""^10 10. 12 4""^More love, O Christ, to Thee""^Joseph Barnby\n(1838-96)" G4 G4 G4 | %1
 F6 G2 A4 | B4 B4 c4 | B12 || E4 E4 E4 | G6 F2 F4 | E4 D4 E4 | F12 || A4 A4 A4 | A6 G2 G4 | %10
 c4 c4 c4 | d6 c2 !fermata!B4 ||"^Slower" e4 F4 A4 | G12 || A12 | G12 |] %16
V:2
 E4 E4 E4 | D6 D2 D4 | E4 E4 E4 | E12 || E4 E4 E4 | C6 C2 C4 | B,4 =A,4 A,4 | B,12 || C4 C4 F4 | %9
 =E6 E2 E4 | F4 =E4 F4 | F6 E2 D4 || E4 E4 D4 | E12 || E12 | E12 |] %16
V:3
 B,4 B,4 B,4 | B,6 B,2 B,4 | B,4 B,4 =A,4 | B,12 || G,4 G,4 G,4 | B,6 A,2 A,4 | G,4 F,4 E,4 | %7
 D,12 || F,4 F,4 C4 | %9
"^1. More love, O Christ, to Thee, \nMore love to Thee!\nHear Thou the prayer I make\nOn bended knee;\nThis is my earnest plea:\nMore love, O Christ, to Thee,\nMore love to Thee!\n\n2. Once earthly joy I craved,\nSought peace and rest;\nNow Thee alone I seek, \nGive what is best;\nThis all my prayer shall be:\nMore love, O Christ, to Thee,\nMore love to Thee!\n\n3. Then shall my latest breath\nWhisper Thy praise;\nThis be the parting cry\nMy heart shall raise;\nThis still its prayer shall be:\nMore love, O Christ, to Thee,\nMore love to Thee!" C6 C2 C4 | %10
 C4 B,4 A,4 | A,6 A,2 A,4 || G,4 C4 B,4 | B,12 || C12 | [E,B,]12 |] %16
V:4
 E,4 E,4 E,4 | A,6 A,2 A,4 | G,4 G,4 ^F,4 | G,12 || C,4 C,4 C,4 | A,,6 A,,2 A,,4 | B,,4 C,4 C,4 | %7
 B,,12 || F,4 F,4 F,4 | B,6 B,2 B,4 | A,4 G,4 F,4 | B,,6 B,,2 !fermata!B,,4 || C,4 A,,4 B,,4 | %13
 E,12 || A,,12 | E,,12 |] %16

